src/assets/outline/MoneyTime.svg

<?xml version="1.0" encoding="UTF-8"?>
<svg width="24" height="24" viewBox="0 0 24 24" xmlns="http://www.w3.org/2000/svg">
 <path d="m12 15.25c-1.79 0-3.25-1.46-3.25-3.25s1.46-3.25 3.25-3.25 3.25 1.46 3.25 3.25-1.46 3.25-3.25 3.25zm0-5c-0.96 0-1.75 0.79-1.75 1.75s0.79 1.75 1.75 1.75 1.75-0.79 1.75-1.75-0.79-1.75-1.75-1.75z"/>
 <path d="m18.5 15.25c-0.41 0-0.75-0.34-0.75-0.75v-5c0-0.41 0.34-0.75 0.75-0.75s0.75 0.34 0.75 0.75v5c0 0.41-0.34 0.75-0.75 0.75z"/>
 <path d="m5 22.75c-2.62 0-4.75-2.13-4.75-4.75s2.13-4.75 4.75-4.75 4.75 2.13 4.75 4.75-2.13 4.75-4.75 4.75zm0-8c-1.79 0-3.25 1.46-3.25 3.25s1.46 3.25 3.25 3.25 3.25-1.46 3.25-3.25-1.46-3.25-3.25-3.25z"/>
 <path d="m3.9999 19.75c-0.25 0-0.50001-0.13-0.64001-0.36-0.21-0.35-0.09999-0.82 0.26001-1.03l0.76001-0.46c0.07-0.04 0.11999-0.13 0.11999-0.21v-0.93c0-0.41 0.34-0.75 0.75-0.75s0.75 0.34 0.75 0.75v0.93c0 0.61-0.32997 1.19-0.84997 1.5l-0.76001 0.46c-0.12 0.07-0.26002 0.1-0.39002 0.1z"/>
 <path d="m17 20.75h-8.5c-0.41 0-0.75-0.34-0.75-0.75s0.34-0.75 0.75-0.75h8.5c2.86 0 4.25-1.39 4.25-4.25v-6c0-2.86-1.39-4.25-4.25-4.25h-10c-2.86 0-4.25 1.39-4.25 4.25v6.2c0 0.41-0.34 0.75-0.75 0.75s-0.75-0.34-0.75-0.75v-6.2c0-3.65 2.1-5.75 5.75-5.75h10c3.65 0 5.75 2.1 5.75 5.75v6c0 3.65-2.1 5.75-5.75 5.75z"/>
</svg>

<svg width="24" height="24" viewBox="0 0 24 24"  xmlns="http://www.w3.org/2000/svg">
<path d="M12 15.25C10.21 15.25 8.75 13.79 8.75 12C8.75 10.21 10.21 8.75 12 8.75C13.79 8.75 15.25 10.21 15.25 12C15.25 13.79 13.79 15.25 12 15.25ZM12 10.25C11.04 10.25 10.25 11.04 10.25 12C10.25 12.96 11.04 13.75 12 13.75C12.96 13.75 13.75 12.96 13.75 12C13.75 11.04 12.96 10.25 12 10.25Z" />
<path d="M18.5 15.25C18.09 15.25 17.75 14.91 17.75 14.5V9.5C17.75 9.09 18.09 8.75 18.5 8.75C18.91 8.75 19.25 9.09 19.25 9.5V14.5C19.25 14.91 18.91 15.25 18.5 15.25Z" />
<path d="M5 22.75C2.38 22.75 0.25 20.62 0.25 18C0.25 15.38 2.38 13.25 5 13.25C7.62 13.25 9.75 15.38 9.75 18C9.75 20.62 7.62 22.75 5 22.75ZM5 14.75C3.21 14.75 1.75 16.21 1.75 18C1.75 19.79 3.21 21.25 5 21.25C6.79 21.25 8.25 19.79 8.25 18C8.25 16.21 6.79 14.75 5 14.75Z" />
<path d="M3.99989 19.75C3.74989 19.75 3.49988 19.62 3.35988 19.39C3.14988 19.04 3.25989 18.57 3.61989 18.36L4.3799 17.9C4.4499 17.86 4.49989 17.77 4.49989 17.69V16.76C4.49989 16.35 4.83989 16.01 5.24989 16.01C5.65989 16.01 5.99989 16.35 5.99989 16.76V17.69C5.99989 18.3 5.66992 18.88 5.14992 19.19L4.38991 19.65C4.26991 19.72 4.12989 19.75 3.99989 19.75Z" />
<path d="M17 20.75H8.5C8.09 20.75 7.75 20.41 7.75 20C7.75 19.59 8.09 19.25 8.5 19.25H17C19.86 19.25 21.25 17.86 21.25 15V9C21.25 6.14 19.86 4.75 17 4.75H7C4.14 4.75 2.75 6.14 2.75 9V15.2C2.75 15.61 2.41 15.95 2 15.95C1.59 15.95 1.25 15.61 1.25 15.2V9C1.25 5.35 3.35 3.25 7 3.25H17C20.65 3.25 22.75 5.35 22.75 9V15C22.75 18.65 20.65 20.75 17 20.75Z" />
</svg>
